X:1
T:Title
%%score 1 2 3
L:1/8
M:2/2
K:C
V:1 treble-8 nm="Part_1"
V:2 treble-8 nm="Part_2"
V:3 bass nm="Part_3"
V:1
 d8 | e4 e4 | (3f8 e2 d2 | c4 (3:2:1d6- | (3d2 c2 B2 A4- | A4 c4- | c4 f4- | f4 e4- | e4 d4- | %9
 d4 ^c4 | d8 | z4 B4 | c6 A2 | c4 d4 | e4 f4 | g4 e4- | e4 a4- | a4 g4 | a8 | z4 d4 | e4 f4 | %21
 e2 g2 f2 a2- | a2 g2 e2 f2- | fe e4 d2 | !fermata!e8 | !fermata!c8 | z8 | z8 | f8 | e4 e4 | d8 | %31
 g8 | (3f8 e2 d2 | c8 | d4 e4- | e2 d2 c4 | B4 d4 | c4 A4- | A4 G4 | A4 z4 | c6 d2 | e4 e4 | %42
 d6 cB | A4 B4 | c8 | B4 e4- | e2 d2 d2 c2 | e4 z4 | e8 | e4 f4 | d8 | (3g8 f2 _e2 | d8 | c6 d2 | %54
 e6 f2 | g6 fe | f4 e4- | e4 d4- | d4 c4 | d8 |] %60
V:2
 d8 | c4 c4 | (3d8 c2 B2 | A4 F4 | D6 E2 | F4 E4 | A8 | D4 A4 | G4 F4 | E8 | D8 | (3d8 c2 B2 | %12
 A4 e4- | e4 f4 | c4 d4 | e6 d2 | c4 A4 | B8 | A4 z4 | d6 _B2 | c4 d4 | c2 e2 d2 c2- | %22
 cA B2 c2 A2- | A2 G2 F4 | !fermata!E8 | !fermata!A8 | F8 | E4 E4 | D8 | G8 | (3F8 E2 D2 | C8 | %32
 D8 | E8 | F2 ED C4 | G4 A4 | G4 B4 | A4 c4 | B8 | A8 | e6 d2 | c4 c4 | B8 | c4 G4 | A4 F4 | %45
 G4 E4 | F4 F4 | E8 | z8 | C4 D3 E | (3F8 _E2 D2 | _E4 C4 | F6 G2 | A8 | c8 | B4 c4 | d4 A4 | %57
 G4 F4 | E8 | D8 |] %60
V:3
 D,8 | A,,8 | D,6 E,2 | F,4 D,4 | F,8 | D,4 A,,4 | F,4 D,4 | A,4 A,,4 | C,4 D,4 | A,,8 | _B,,8 | %11
 G,,4 G,4 | F,4 z4 | C,4 _B,,4 | A,,4 D,4 | (3:2:2C,8 B,,4 | A,,8 | E,8 | F,8 | _B,,8 | %20
 A,,2 C,2 =B,,4 | C,4 (3:2:2D,4 E,2 | F,2 E,2 A,,2 D,2- | D,2 G,,2 D,4 | !fermata!A,,8- | A,,8 | %26
 D,8 | A,,8 | _B,,8 | C,8 | z4 D,4 | _E,4 C,2 E,2 | _B,,8 | A,,4 C,4 | _B,,4 A,,4 | %35
 C,2 _B,,2 A,,4 | E,4 z4 | ^F,3 G, A,4 | E,8 | A,,8- | A,,8 | z4 C,4 | G,,4 G,4 | F,4 E,4 | %44
 A,,4 A,4 | E,4 C,4 | D,8 | A,,8- | A,,8 | z8 | _B,,8 | C,4 _E,4 | _B,,4 G,,2 B,,2 | F,,4 F,2 D,2 | %54
 A,,8 | G,,4 A,,2 C,2 | _B,,4 C,4- | C,2 G,,2 D,4 | A,,8 | [D,,D,A,]8 |] %60

